X:42
M:3/4
L:1/8
Q:"Andante  " 1/4=105
K:F
!p![FA,]>[GC]|[A2F2][A2F2] [AF]>[BG]|[A2F2][G2E2]([AF]c)|\
([d2F2]G2) [G=B,]>[A]|{[A2F2C2]}[G4E4C4]F>G|\
(A2 BAGF)|(C3 DFG)|(A2F2) (F>G)|F4 (F>G)|
[A2F2][A2F2] ([AF]>[BG])|[A2F2][G2E2]([AF]>c)|\
([d2F2]G2) [G=B,]>[A]|{[A2F2C2]}[G4E4C4]F>G|\
(AcBAGF)|C2 (cBAG)|(A2F2) F>G|F4||
([AF]>[BG]) [c2A2][c2A2]|([dB][cA][BG][AF][GB,][FA,])|\
[F2A,2]f2 ([fA]>[gB])|[F4A4] (Bd)|
([_e3B3G3] f [e2A2])|([d2B2][c2A2]) ([dB][fcA])|\
[g2B2G2] G2 (G>A)|(A2 BAGF)|\
(C3 [dB][cA][BG])|([A2F2]F2) (G>A)|F4||

